www/assets/icons/sync_alt.svg

<svg xmlns="http://www.w3.org/2000/svg" width="24" height="24" viewBox="0 0 24 24" fill='currentColor'><path d="m18 12 4-4-4-4v3H3v2h15zM6 12l-4 4 4 4v-3h15v-2H6z"/></svg>

<svg width="24" height="24" viewBox="0 0 24 24" xmlns="http://www.w3.org/2000/svg" fill='currentColor'><path d="M18 12L22 8L18 4V7H3V9H18V12Z"/><path d="M6 12L2 16L6 20V17H21V15H6V12Z"/></svg>
